src/assets/icons/shapes,fancy,outline-hexagon.svg

<svg width="48" height="48" viewBox="0 0 48 48" fill="none" xmlns="http://www.w3.org/2000/svg">
<path d="M22.75 5.45374C23.2633 5.15738 23.5558 4.99046 23.784 4.88707C23.8863 4.84074 23.9443 4.82219 23.9738 4.81457C23.9876 4.811 23.9948 4.80993 23.997 4.80964L24 4.8094L24.003 4.80964C24.0052 4.80993 24.0124 4.811 24.0262 4.81457C24.0557 4.82219 24.1137 4.84074 24.216 4.88707C24.4442 4.99047 24.7367 5.15739 25.25 5.45374L39.4365 13.6443C39.9498 13.9407 40.2406 14.1105 40.4443 14.2565C40.5356 14.3219 40.5806 14.3629 40.602 14.3846C40.612 14.3948 40.6165 14.4005 40.6178 14.4022L40.6195 14.4047L40.6208 14.4074C40.6217 14.4094 40.6244 14.4162 40.6282 14.43C40.6363 14.4593 40.6493 14.5188 40.6603 14.6306C40.6849 14.8799 40.6865 15.2167 40.6865 15.8094V32.1906C40.6865 32.7833 40.6849 33.1201 40.6603 33.3694C40.6493 33.4812 40.6363 33.5407 40.6282 33.57C40.6244 33.5838 40.6217 33.5906 40.6208 33.5926L40.6195 33.5953L40.6178 33.5978C40.6165 33.5995 40.612 33.6052 40.602 33.6154C40.5806 33.6371 40.5356 33.6781 40.4443 33.7435C40.2406 33.8895 39.9498 34.0593 39.4365 34.3557L25.25 42.5463C24.7367 42.8426 24.4442 43.0095 24.216 43.1129C24.1137 43.1593 24.0557 43.1778 24.0262 43.1854C24.0124 43.189 24.0052 43.1901 24.003 43.1904L24 43.1906L23.997 43.1904C23.9948 43.1901 23.9876 43.189 23.9738 43.1854C23.9443 43.1778 23.8863 43.1593 23.784 43.1129C23.5558 43.0095 23.2633 42.8426 22.75 42.5463L8.56347 34.3557C8.05017 34.0593 7.75938 33.8895 7.55572 33.7435C7.46444 33.6781 7.41937 33.6371 7.39804 33.6154C7.38803 33.6052 7.38349 33.5995 7.38216 33.5978L7.38045 33.5953L7.37918 33.5926C7.37834 33.5906 7.37565 33.5838 7.37183 33.57C7.36368 33.5407 7.35074 33.4812 7.33973 33.3694C7.31515 33.1201 7.31347 32.7833 7.31347 32.1906V15.8094C7.31347 15.2167 7.31515 14.8799 7.33973 14.6306C7.35074 14.5188 7.36368 14.4593 7.37183 14.43C7.37565 14.4162 7.37834 14.4094 7.37918 14.4074L7.38045 14.4047L7.38216 14.4022C7.38349 14.4005 7.38803 14.3948 7.39804 14.3846C7.41937 14.3629 7.46444 14.3219 7.55571 14.2565C7.75938 14.1105 8.05017 13.9407 8.56347 13.6443L22.75 5.45374Z" stroke="black" stroke-width="3"/>
</svg>

<svg xmlns="http://www.w3.org/2000/svg" width="48" height="48" fill="none" viewBox="0 0 48 48">
  <path stroke="#000" stroke-width="3" d="M25.25 5.454l14.187 8.19c.513.297.804.466 1.007.613a1.234 1.234 0 01.174.145l.002.003v.002l.003.007c.002.003.003.009.005.016.008.03.021.089.032.2.025.25.027.587.027 1.18v16.38c0 .593-.002.93-.027 1.18a1.231 1.231 0 01-.04.223v.002l-.002.003a1.234 1.234 0 01-.174.146c-.203.145-.494.315-1.007.612l-14.187 8.19c-.513.297-.806.464-1.034.567a1.22 1.22 0 01-.213.077h-.006-.003l-.02-.005a1.22 1.22 0 01-.19-.072c-.228-.103-.52-.27-1.034-.567l-14.187-8.19c-.513-.297-.804-.467-1.007-.613a1.23 1.23 0 01-.174-.145l-.002-.003v-.002a1.226 1.226 0 01-.04-.223c-.025-.25-.027-.587-.027-1.18V15.81c0-.593.002-.93.027-1.18a1.226 1.226 0 01.04-.223v-.002l.002-.003a1.23 1.23 0 01.174-.146c.203-.146.494-.315 1.007-.612l14.187-8.19c.513-.297.806-.464 1.034-.567a1.23 1.23 0 01.213-.077h.006a1.23 1.23 0 01.213.077c.228.103.52.27 1.034.567z"/>
</svg>
